packages/kaspersky-hexa-ui-icons/src/iconsSVGs/24/Edit.svg

<svg width="24" height="24" viewBox="0 0 24 24" fill="none" xmlns="http://www.w3.org/2000/svg">
<path fill-rule="evenodd" clip-rule="evenodd" d="M19.2727 1.85851C18.5697 1.15556 17.4301 1.15556 16.7271 1.85851L14.2949 4.29071L14.2928 4.29282L14.2907 4.29494L3.5069 15.0787C3.2277 15.3579 3.03739 15.7135 2.95996 16.1007L2.07817 20.5097C1.91024 21.3493 2.65054 22.0896 3.49021 21.9217L7.89913 21.0399C8.28632 20.9625 8.64192 20.7722 8.92112 20.493L22.1413 7.27272C22.8443 6.56978 22.8443 5.43008 22.1413 4.72714L19.2727 1.85851ZM18.9999 7.58572L20.5857 5.99993L17.9999 3.41414L16.4141 4.99993L18.9999 7.58572ZM14.9999 6.41414L17.5857 8.99993L7.5069 19.0787L4.27467 19.7252L4.92112 16.493L14.9999 6.41414Z" fill="black"/>
</svg>

<svg xmlns="http://www.w3.org/2000/svg" width="24" height="24" fill="none" viewBox="0 0 24 24"><path fill="#000" fill-rule="evenodd" d="M19.2727 1.8585c-.703-.703-1.8426-.703-2.5456 0l-2.4322 2.4322-.0021.0021-.0021.0021L3.5069 15.0787a2 2 0 0 0-.547 1.022l-.8817 4.409c-.168.8396.5723 1.5799 1.412 1.412l4.409-.8818a2 2 0 0 0 1.022-.5469l13.22-13.2203c.703-.703.703-1.8426 0-2.5456zm-.2728 5.7272L20.5857 6l-2.5858-2.5858L16.4141 5zm-4-1.1716L17.5857 9 7.5069 19.0787l-3.2322.6465.6464-3.2322z"/></svg>
